static/img/kroki/b1dd87185bf1f33958bedbc5c523d484.svg

<?xml version="1.0" encoding="us-ascii" standalone="no"?><svg xmlns="http://www.w3.org/2000/svg" xmlns:xlink="http://www.w3.org/1999/xlink" contentStyleType="text/css" height="352px" preserveAspectRatio="none" style="width:382px;height:352px;" version="1.1" viewBox="0 0 382 352" width="382px" zoomAndPan="magnify"><defs/><g><!--class aws_ec2_route_table--><g id="elem_aws_ec2_route_table"><rect codeLine="22" fill="#3D176E" height="39.7891" id="aws_ec2_route_table" rx="2.5" ry="2.5" style="stroke:#000D19;stroke-width:0.5;" width="218" x="7" y="206.58"/><ellipse cx="22" cy="226.4745" fill="#ADD1B2" rx="11" ry="11" style="stroke:#181818;stroke-width:1.0;"/><path d="M24.9688,232.1152 Q24.3906,232.412 23.75,232.5527 Q23.1094,232.7089 22.4063,232.7089 Q19.9063,232.7089 18.5781,231.0683 Q17.2656,229.412 17.2656,226.287 Q17.2656,223.162 18.5781,221.5058 Q19.9063,219.8495 22.4063,219.8495 Q23.1094,219.8495 23.75,220.0058 Q24.4063,220.162 24.9688,220.4589 L24.9688,223.1777 Q24.3438,222.5995 23.75,222.3339 Q23.1563,222.0527 22.5313,222.0527 Q21.1875,222.0527 20.5,223.1308 Q19.8125,224.1933 19.8125,226.287 Q19.8125,228.3808 20.5,229.4589 Q21.1875,230.5214 22.5313,230.5214 Q23.1563,230.5214 23.75,230.2558 Q24.3438,229.9745 24.9688,229.3964 L24.9688,232.1152 Z " fill="#000000"/><text fill="#D9B8FF" font-family="Helvetica" font-size="17" lengthAdjust="spacing" textLength="176" x="41" y="232.3598">aws_ec2_route_table</text></g><!--class aws_region--><g id="elem_aws_region"><rect codeLine="24" fill="#3D176E" height="39.7891" id="aws_region" rx="2.5" ry="2.5" style="stroke:#000D19;stroke-width:0.5;" width="137" x="167.5" y="7"/><ellipse cx="182.5" cy="26.8945" fill="#ADD1B2" rx="11" ry="11" style="stroke:#181818;stroke-width:1.0;"/><path d="M185.4688,32.5352 Q184.8906,32.832 184.25,32.9727 Q183.6094,33.1289 182.9063,33.1289 Q180.4063,33.1289 179.0781,31.4883 Q177.7656,29.832 177.7656,26.707 Q177.7656,23.582 179.0781,21.9258 Q180.4063,20.2695 182.9063,20.2695 Q183.6094,20.2695 184.25,20.4258 Q184.9063,20.582 185.4688,20.8789 L185.4688,23.5977 Q184.8438,23.0195 184.25,22.7539 Q183.6563,22.4727 183.0313,22.4727 Q181.6875,22.4727 181,23.5508 Q180.3125,24.6133 180.3125,26.707 Q180.3125,28.8008 181,29.8789 Q181.6875,30.9414 183.0313,30.9414 Q183.6563,30.9414 184.25,30.6758 Q184.8438,30.3945 185.4688,29.8164 L185.4688,32.5352 Z " fill="#000000"/><text fill="#D9B8FF" font-family="Helvetica" font-size="17" lengthAdjust="spacing" textLength="95" x="201.5" y="32.7798">aws_region</text></g><!--class aws_vpc--><g id="elem_aws_vpc"><rect codeLine="26" fill="#3D176E" height="39.7891" id="aws_vpc" rx="2.5" ry="2.5" style="stroke:#000D19;stroke-width:0.5;" width="112" x="180" y="106.79"/><ellipse cx="195" cy="126.6845" fill="#ADD1B2" rx="11" ry="11" style="stroke:#181818;stroke-width:1.0;"/><path d="M197.9688,132.3252 Q197.3906,132.622 196.75,132.7627 Q196.1094,132.9189 195.4063,132.9189 Q192.9063,132.9189 191.5781,131.2783 Q190.2656,129.622 190.2656,126.497 Q190.2656,123.372 191.5781,121.7158 Q192.9063,120.0595 195.4063,120.0595 Q196.1094,120.0595 196.75,120.2158 Q197.4063,120.372 197.9688,120.6689 L197.9688,123.3877 Q197.3438,122.8095 196.75,122.5439 Q196.1563,122.2627 195.5313,122.2627 Q194.1875,122.2627 193.5,123.3408 Q192.8125,124.4033 192.8125,126.497 Q192.8125,128.5908 193.5,129.6689 Q194.1875,130.7314 195.5313,130.7314 Q196.1563,130.7314 196.75,130.4658 Q197.3438,130.1845 197.9688,129.6064 L197.9688,132.3252 Z " fill="#000000"/><text fill="#D9B8FF" font-family="Helvetica" font-size="17" lengthAdjust="spacing" textLength="70" x="214" y="132.5698">aws_vpc</text></g><!--class aws_vpc_endpoint--><g id="elem_aws_vpc_endpoint"><rect codeLine="28" fill="#3D176E" height="39.7891" id="aws_vpc_endpoint" rx="2.5" ry="2.5" style="stroke:#000D19;stroke-width:0.5;" width="195" x="180.5" y="306.37"/><ellipse cx="195.5" cy="326.2645" fill="#ADD1B2" rx="11" ry="11" style="stroke:#181818;stroke-width:1.0;"/><path d="M198.4688,331.9052 Q197.8906,332.202 197.25,332.3427 Q196.6094,332.4989 195.9063,332.4989 Q193.4063,332.4989 192.0781,330.8583 Q190.7656,329.202 190.7656,326.077 Q190.7656,322.952 192.0781,321.2958 Q193.4063,319.6395 195.9063,319.6395 Q196.6094,319.6395 197.25,319.7958 Q197.9063,319.952 198.4688,320.2489 L198.4688,322.9677 Q197.8438,322.3895 197.25,322.1239 Q196.6563,321.8427 196.0313,321.8427 Q194.6875,321.8427 194,322.9208 Q193.3125,323.9833 193.3125,326.077 Q193.3125,328.1708 194,329.2489 Q194.6875,330.3114 196.0313,330.3114 Q196.6563,330.3114 197.25,330.0458 Q197.8438,329.7645 198.4688,329.1864 L198.4688,331.9052 Z " fill="#000000"/><text fill="#D9B8FF" font-family="Helvetica" font-size="17" lengthAdjust="spacing" textLength="153" x="214.5" y="332.1498">aws_vpc_endpoint</text></g><!--link aws_ec2_route_table to aws_vpc_endpoint--><g id="link_aws_ec2_route_table_aws_vpc_endpoint"><path codeLine="30" d="M148.01,246.8 C174.74,262.94 212.89,285.96 240.94,302.9 " fill="none" id="aws_ec2_route_table-to-aws_vpc_endpoint" style="stroke:#1A83AF;stroke-width:2.0;"/><polygon fill="#1A83AF" points="245.06,305.99,239.4005,297.9296,240.7725,303.4175,235.2846,304.7895,245.06,305.99" style="stroke:#1A83AF;stroke-width:2.0;"/></g><!--link aws_region to aws_ec2_route_table--><g id="link_aws_region_aws_ec2_route_table"><path codeLine="31" d="M213.83,47.16 C197.71,62.11 176.3,84.06 162,106.79 C143.15,136.75 129.88,175.68 122.59,200.62 " fill="none" id="aws_region-to-aws_ec2_route_table" style="stroke:#1A83AF;stroke-width:2.0;"/><polygon fill="#1A83AF" points="120.95,205.34,127.2893,197.8026,122.3368,200.5362,119.6032,195.5837,120.95,205.34" style="stroke:#1A83AF;stroke-width:2.0;"/></g><!--link aws_region to aws_vpc--><g id="link_aws_region_aws_vpc"><path codeLine="32" d="M236,47.22 C236,62.49 236,83.92 236,100.53 " fill="none" id="aws_region-to-aws_vpc" style="stroke:#1A83AF;stroke-width:2.0;"/><polygon fill="#1A83AF" points="236,105.41,240,96.41,236,100.41,232,96.41,236,105.41" style="stroke:#1A83AF;stroke-width:2.0;"/></g><!--link aws_region to aws_vpc_endpoint--><g id="link_aws_region_aws_vpc_endpoint"><path codeLine="33" d="M262.23,47.06 C279.41,61.35 300.4,82.52 310,106.79 C336.38,173.49 307.11,259.39 289.44,300.8 " fill="none" id="aws_region-to-aws_vpc_endpoint" style="stroke:#1A83AF;stroke-width:2.0;"/><polygon fill="#1A83AF" points="287.14,305.1,294.3869,298.4305,289.1268,300.5117,287.0457,295.2516,287.14,305.1" style="stroke:#1A83AF;stroke-width:2.0;"/></g><!--link aws_vpc to aws_ec2_route_table--><g id="link_aws_vpc_aws_ec2_route_table"><path codeLine="34" d="M212.29,147.01 C192.73,162.95 164.93,185.6 144.23,202.47 " fill="none" id="aws_vpc-to-aws_ec2_route_table" style="stroke:#1A83AF;stroke-width:2.0;"/><polygon fill="#1A83AF" points="140.66,206.2,150.1627,203.612,144.5349,203.04,145.1068,197.4122,140.66,206.2" style="stroke:#1A83AF;stroke-width:2.0;"/></g><!--link aws_vpc to aws_vpc_endpoint--><g id="link_aws_vpc_aws_vpc_endpoint"><path codeLine="35" d="M240.1,146.99 C247.76,182.99 264.2,260.34 272.69,300.27 " fill="none" id="aws_vpc-to-aws_vpc_endpoint" style="stroke:#1A83AF;stroke-width:2.0;"/><polygon fill="#1A83AF" points="273.88,304.88,275.9131,295.2433,272.8363,299.9902,268.0894,296.9133,273.88,304.88" style="stroke:#1A83AF;stroke-width:2.0;"/></g><!--SRC=[ZP1DQm8n48Rl_eg0Py5LMlLIM0LfBr9gRwKiivk91dUJPJ8gjlI_rzMsnCIFNkTzydvagIKAh6hUYGgh7Ccrt4gR6WWgaHBPxSIMbaHRAL3zGIXEhU6Rm0mg58zORf1r0I7nkjJ5og1pekT9OoXM2x9h8u_sJ63SNaB37ZKfmRcKcNI-PlJAo54-L2eaGzDsNoQ3UummInBf1-bskp8PXSZDgAkx_uYv_a2H-9ysiunHpIZYG5rjsH1UoMZehtwnupD8gSr2t7ctbsCdCaWdz_aIfDqsj8BI-J6EaT3ohiP9j0f7Gwa6P-6dIt3H_9o0hSkmw6LxW35Zo4iKdwqlJoLSQ6k2uwOkuak6HjPM6pv8vvmxR-qa7VRJwNld8NhLyj8YC72wokvDR-cdeSsQVoMU1NsxRm00]--></g></svg>

<svg xmlns="http://www.w3.org/2000/svg" width="382" height="352" preserveAspectRatio="none" style="width:382px;height:352px"><rect width="218" height="39.789" x="7" y="206.58" fill="#3D176E" rx="2.5" ry="2.5" style="stroke:#000d19;stroke-width:.5"/><circle cx="22" cy="226.475" r="11" fill="#ADD1B2" style="stroke:#181818;stroke-width:1"/><path d="M24.969 232.115q-.578.297-1.219.438-.64.156-1.344.156-2.5 0-3.828-1.64-1.312-1.657-1.312-4.782t1.312-4.781q1.328-1.656 3.828-1.656.703 0 1.344.156.656.156 1.219.453v2.719q-.625-.578-1.219-.844-.594-.281-1.219-.281-1.343 0-2.031 1.078-.688 1.062-.688 3.156 0 2.094.688 3.172.688 1.062 2.031 1.062.625 0 1.219-.265.594-.281 1.219-.86v2.72Z"/><text x="41" y="232.36" fill="#D9B8FF" font-family="Helvetica" font-size="17" textLength="176">aws_ec2_route_table</text><rect width="137" height="39.789" x="167.5" y="7" fill="#3D176E" rx="2.5" ry="2.5" style="stroke:#000d19;stroke-width:.5"/><circle cx="182.5" cy="26.895" r="11" fill="#ADD1B2" style="stroke:#181818;stroke-width:1"/><path d="M185.469 32.535q-.578.297-1.219.438-.64.156-1.344.156-2.5 0-3.828-1.64-1.312-1.657-1.312-4.782t1.312-4.781q1.328-1.656 3.828-1.656.703 0 1.344.156.656.156 1.219.453v2.719q-.625-.578-1.219-.844-.594-.281-1.219-.281-1.344 0-2.031 1.078-.688 1.062-.688 3.156 0 2.094.688 3.172.688 1.062 2.031 1.062.625 0 1.219-.265.594-.281 1.219-.86v2.72Z"/><text x="201.5" y="32.78" fill="#D9B8FF" font-family="Helvetica" font-size="17" textLength="95">aws_region</text><rect width="112" height="39.789" x="180" y="106.79" fill="#3D176E" rx="2.5" ry="2.5" style="stroke:#000d19;stroke-width:.5"/><circle cx="195" cy="126.684" r="11" fill="#ADD1B2" style="stroke:#181818;stroke-width:1"/><path d="M197.969 132.325q-.578.297-1.219.438-.64.156-1.344.156-2.5 0-3.828-1.64-1.312-1.657-1.312-4.782t1.312-4.781q1.328-1.656 3.828-1.656.703 0 1.344.156.656.156 1.219.453v2.719q-.625-.579-1.219-.844-.594-.281-1.219-.281-1.344 0-2.031 1.078-.688 1.062-.688 3.156 0 2.094.688 3.172.688 1.062 2.031 1.062.625 0 1.219-.265.594-.281 1.219-.86v2.72Z"/><text x="214" y="132.57" fill="#D9B8FF" font-family="Helvetica" font-size="17" textLength="70">aws_vpc</text><rect width="195" height="39.789" x="180.5" y="306.37" fill="#3D176E" rx="2.5" ry="2.5" style="stroke:#000d19;stroke-width:.5"/><circle cx="195.5" cy="326.264" r="11" fill="#ADD1B2" style="stroke:#181818;stroke-width:1"/><path d="M198.469 331.905q-.578.297-1.219.438-.64.156-1.344.156-2.5 0-3.828-1.64-1.312-1.657-1.312-4.782t1.312-4.781q1.328-1.656 3.828-1.656.703 0 1.344.156.656.156 1.219.453v2.719q-.625-.579-1.219-.844-.594-.281-1.219-.281-1.344 0-2.031 1.078-.688 1.062-.688 3.156 0 2.094.688 3.172.688 1.062 2.031 1.062.625 0 1.219-.265.594-.281 1.219-.86v2.72Z"/><text x="214.5" y="332.15" fill="#D9B8FF" font-family="Helvetica" font-size="17" textLength="153">aws_vpc_endpoint</text><path fill="none" d="M148.01 246.8c26.73 16.14 64.88 39.16 92.93 56.1" style="stroke:#1a83af;stroke-width:2"/><path fill="#1A83AF" d="m245.06 305.99-5.66-8.06 1.373 5.488-5.488 1.371 9.775 1.201z" style="stroke:#1a83af;stroke-width:2"/><path fill="none" d="M213.83 47.16c-16.12 14.95-37.53 36.9-51.83 59.63-18.85 29.96-32.12 68.89-39.41 93.83" style="stroke:#1a83af;stroke-width:2"/><path fill="#1A83AF" d="m120.95 205.34 6.34-7.537-4.953 2.733-2.734-4.952 1.347 9.756z" style="stroke:#1a83af;stroke-width:2"/><path fill="none" d="M236 47.22v53.31" style="stroke:#1a83af;stroke-width:2"/><path fill="#1A83AF" d="m236 105.41 4-9-4 4-4-4 4 9z" style="stroke:#1a83af;stroke-width:2"/><path fill="none" d="M262.23 47.06c17.18 14.29 38.17 35.46 47.77 59.73 26.38 66.7-2.89 152.6-20.56 194.01" style="stroke:#1a83af;stroke-width:2"/><path fill="#1A83AF" d="m287.14 305.1 7.247-6.67-5.26 2.082-2.081-5.26.094 9.848z" style="stroke:#1a83af;stroke-width:2"/><path fill="none" d="M212.29 147.01c-19.56 15.94-47.36 38.59-68.06 55.46" style="stroke:#1a83af;stroke-width:2"/><path fill="#1A83AF" d="m140.66 206.2 9.503-2.588-5.628-.572.572-5.628-4.447 8.788z" style="stroke:#1a83af;stroke-width:2"/><path fill="none" d="M240.1 146.99c7.66 36 24.1 113.35 32.59 153.28" style="stroke:#1a83af;stroke-width:2"/><path fill="#1A83AF" d="m273.88 304.88 2.033-9.637-3.077 4.747-4.747-3.077 5.791 7.967z" style="stroke:#1a83af;stroke-width:2"/></svg>
